lib/flags/s/008.svg

<svg xmlns="http://www.w3.org/2000/svg" fill="none" viewBox="0 0 16 12"><mask id="008_svg__a" width="16" height="12" x="0" y="0" mask-type="alpha" maskUnits="userSpaceOnUse"><rect width="16" height="12" fill="#fff" rx="-1"/></mask><g fill-rule="evenodd" clip-rule="evenodd" mask="url(#008_svg__a)"><path fill="#F50100" d="M0 0H16V12H0V0Z"/><path fill="#1A1A1A" d="M7.94122 7.49086C7.8939 7.4833 7.8476 7.47241 7.80259 7.45841C7.11746 7.99127 6.45753 8.35302 5.81926 8.54037C5.55429 8.61814 5.27645 8.46639 5.19868 8.20143C5.12091 7.93646 5.27265 7.65862 5.53762 7.58085C5.93188 7.46513 6.352 7.25705 6.79638 6.95512C6.50433 7.00213 6.20174 7.05365 6.02023 7.09246C5.87175 7.12421 5.69346 7.2162 5.52267 7.30433L5.52267 7.30433C5.18993 7.47602 4.88566 7.63302 4.88566 7.30124C4.88566 6.79916 5.17774 6.64902 5.71973 6.42208C6.11844 6.25513 6.37004 6.26025 6.61244 6.26517H6.61245C6.69955 6.26694 6.78546 6.26869 6.87659 6.26242C6.92764 6.2589 6.98242 6.25295 7.0387 6.24535L7.02222 6.15188C6.97173 6.14532 6.92264 6.14016 6.87659 6.13699C6.78546 6.13072 6.69955 6.13247 6.61245 6.13424H6.61244C6.37004 6.13916 6.11844 6.14428 5.71973 5.97733C5.17774 5.75039 4.88566 5.60024 4.88566 5.09817C4.88566 4.76639 5.18993 4.92339 5.52267 5.09508C5.69346 5.18321 5.87175 5.2752 6.02023 5.30695C6.22343 5.35039 6.57836 5.40977 6.90038 5.46092L6.89258 5.41667C6.82596 5.37841 6.76394 5.33451 6.70997 5.28415C6.48522 5.07443 6.30152 5.03948 6.07349 4.99608C5.9214 4.96714 5.74959 4.93444 5.53274 4.84364C4.99075 4.6167 4.66436 4.17326 4.66436 3.67118C4.66436 3.34525 4.94536 3.55668 5.27989 3.80837C5.46068 3.94439 5.65709 4.09218 5.83324 4.17326C6.00689 4.2532 6.1843 4.3175 6.34657 4.37632C6.51294 4.43662 6.66339 4.49116 6.77753 4.55084C6.77972 4.52877 6.78263 4.50689 6.78626 4.48523C6.7262 4.442 6.67441 4.39079 6.63547 4.33014C6.36967 3.91614 6.01301 3.7668 5.47437 3.54126L5.46838 3.53875C4.92639 3.31181 4.60001 2.86837 4.60001 2.3663C4.60001 2.04036 4.88101 2.25179 5.21553 2.50348C5.39632 2.6395 5.59274 2.78729 5.76888 2.86837C6.27096 3.09949 6.65696 3.29838 6.90225 3.7657C6.95001 3.85668 6.99882 3.92038 7.04648 3.96397C7.10787 3.89901 7.17793 3.84215 7.25489 3.79535C7.15151 3.04761 6.97666 2.67214 6.81129 2.64137C6.53981 2.59086 6.36067 2.32984 6.41118 2.05835C6.46169 1.78687 6.72272 1.60773 6.9942 1.65824C7.66238 1.78256 8.04178 2.40265 8.22024 3.48861C8.3987 2.40265 8.77809 1.78256 9.44627 1.65824C9.71776 1.60773 9.97878 1.78687 10.0293 2.05835C10.0798 2.32984 9.90067 2.59086 9.62918 2.64137C9.46424 2.67206 9.28986 3.04567 9.18638 3.78956C9.27433 3.8274 9.35532 3.87736 9.42751 3.93712C9.46647 3.89539 9.50592 3.83952 9.54467 3.7657C9.78996 3.29838 10.176 3.09949 10.678 2.86837C10.8542 2.78729 11.0506 2.63951 11.2314 2.50348L11.2314 2.50348C11.5659 2.25179 11.8469 2.04036 11.8469 2.3663C11.8469 2.86837 11.5205 3.31181 10.9785 3.53875L10.9725 3.54126C10.4339 3.7668 10.0772 3.91614 9.81145 4.33014C9.79256 4.35956 9.77066 4.38675 9.74625 4.41189C9.75557 4.44179 9.76351 4.47224 9.77 4.50314C9.86641 4.46111 9.97915 4.42025 10.1003 4.37632L10.1004 4.37632C10.2626 4.3175 10.44 4.25319 10.6137 4.17326C10.7898 4.09218 10.9862 3.94439 11.167 3.80837C11.5016 3.55668 11.7826 3.34525 11.7826 3.67118C11.7826 4.17326 11.4562 4.6167 10.9142 4.84364C10.6973 4.93444 10.5255 4.96714 10.3734 4.99608C10.1454 5.03948 9.9617 5.07443 9.73695 5.28415C9.72148 5.29859 9.70534 5.3125 9.68862 5.3259L9.66583 5.44183C9.95311 5.39548 10.2483 5.34508 10.4267 5.30695C10.5752 5.2752 10.7535 5.18321 10.9242 5.09508C11.257 4.92339 11.5613 4.76639 11.5613 5.09817C11.5613 5.60024 11.2692 5.75039 10.7272 5.97733C10.3285 6.14428 10.0769 6.13916 9.83448 6.13424H9.83447C9.74737 6.13247 9.66146 6.13072 9.57033 6.13699C9.55664 6.13794 9.54269 6.13905 9.5285 6.14033L9.50559 6.2569C9.5277 6.25911 9.54933 6.26097 9.57033 6.26242C9.66146 6.26869 9.74737 6.26694 9.83447 6.26517H9.83448C10.0769 6.26025 10.3285 6.25513 10.7272 6.42208C11.2692 6.64902 11.5613 6.79916 11.5613 7.30124C11.5613 7.63302 11.257 7.47602 10.9242 7.30433L10.9242 7.30433L10.9242 7.30432C10.7534 7.2162 10.5752 7.12421 10.4267 7.09246C10.2537 7.05548 9.97075 7.00695 9.69175 6.96177C10.1325 7.26011 10.5493 7.46598 10.9407 7.58085C11.2057 7.65862 11.3574 7.93646 11.2796 8.20143C11.2019 8.46639 10.924 8.61814 10.6591 8.54037C10.0258 8.35448 9.37112 7.99688 8.6917 7.4708C8.66382 7.47811 8.6355 7.48424 8.6068 7.48914C8.72888 8.03356 9.68439 8.48274 9.68439 8.48274C9.68439 8.48274 8.4639 10.8313 8.27027 10.8313C8.07663 10.8313 6.77849 8.48274 6.77849 8.48274C7.45812 8.23021 7.81177 7.71899 7.94122 7.49086Z"/></g></svg>

<svg xmlns="http://www.w3.org/2000/svg" fill="none" viewBox="0 0 16 12"><mask id="008_svg__a" width="16" height="12" x="0" y="0" maskUnits="userSpaceOnUse"><rect width="16" height="12" fill="#fff" rx="-1"/></mask><g fill-rule="evenodd" clip-rule="evenodd" mask="url(#008_svg__a)"><path fill="#F50100" d="M0 0h16v12H0V0z"/><path fill="#1A1A1A" d="M7.941 7.49a.995.995 0 01-.138-.032c-.686.533-1.346.895-1.984 1.082a.5.5 0 01-.281-.96c.394-.115.814-.323 1.258-.625-.292.047-.594.099-.776.137-.148.032-.327.124-.497.212-.333.172-.637.329-.637-.003 0-.502.292-.652.834-.879.398-.167.65-.162.892-.157.088.002.173.004.265-.003.05-.003.105-.009.162-.017l-.017-.093a2.044 2.044 0 00-.41-.018c-.242.005-.494.01-.892-.157-.542-.227-.834-.377-.834-.879 0-.332.304-.175.637-.003.17.088.349.18.497.212.203.043.558.103.88.154l-.007-.044a.988.988 0 01-.183-.133c-.225-.21-.409-.245-.637-.288a2.487 2.487 0 01-.54-.152c-.542-.227-.869-.67-.869-1.173 0-.326.281-.114.616.137.18.136.377.284.553.365.174.08.351.144.514.203.166.06.316.115.43.175a.986.986 0 01.01-.066.577.577 0 01-.152-.155c-.265-.414-.622-.563-1.16-.789l-.007-.002c-.542-.227-.868-.67-.868-1.173 0-.326.281-.114.615.137.181.136.378.284.554.365.502.231.888.43 1.133.898a.716.716 0 00.144.198c.062-.065.132-.122.209-.169-.104-.747-.278-1.123-.444-1.154a.5.5 0 11.183-.983c.668.125 1.048.745 1.226 1.83.179-1.085.558-1.705 1.226-1.83a.5.5 0 01.183.983c-.165.031-.34.405-.443 1.149a.994.994 0 01.241.147.782.782 0 00.118-.171c.245-.468.63-.667 1.133-.898.176-.08.373-.228.553-.365.335-.251.616-.463.616-.137 0 .502-.326.946-.868 1.173l-.006.002c-.54.226-.896.375-1.162.79a.523.523 0 01-.065.08c.01.03.017.061.024.092.096-.042.21-.083.33-.127a6.58 6.58 0 00.514-.203c.176-.08.372-.229.553-.365.335-.251.616-.463.616-.137 0 .502-.327.946-.869 1.173-.217.09-.389.123-.54.152-.229.043-.412.078-.637.288a.848.848 0 01-.048.042l-.023.116c.287-.047.582-.097.76-.135.15-.032.327-.124.498-.212.333-.172.637-.329.637.003 0 .502-.292.652-.834.88-.399.166-.65.161-.893.156a2.024 2.024 0 00-.306.006l-.022.117.064.005c.091.007.177.005.264.003.243-.005.494-.01.893.157.542.227.834.377.834.88 0 .331-.304.174-.637.002-.17-.088-.349-.18-.497-.212a17.52 17.52 0 00-.735-.13c.44.298.857.504 1.249.619a.5.5 0 01-.282.96c-.633-.187-1.288-.544-1.967-1.07a.995.995 0 01-.085.018c.122.545 1.077.994 1.077.994S8.464 10.83 8.27 10.83c-.193 0-1.492-2.348-1.492-2.348a2.265 2.265 0 001.163-.992z"/></g></svg>
